X: 1
T: All Round The Room
M: 4/4
L: 1/8
R: reel
K: Dmaj
D2FA d2AF|d2AF GE~E2|DE (3FGA d2AF|GBAG FDD2|
DEFA d2AF|d2AF GE~E2|DEFA d2AF|GBAG FDD2||
dcdB cdec|dcde fBBc|dcdB cdec|dBAG FDD2|
dcdB cdec|dcde fBB2|BAec dABG|FAEG FDD2||
